48x48/apps/zaz.svg

<svg xmlns="http://www.w3.org/2000/svg" width="48" height="48" version="1">
 <circle style="opacity:0.2" cx="24" cy="17" r="12"/>
 <path style="opacity:0.2" d="M 11.111328,25 C 9.3938744,24.999841 8.0008914,26.351115 8,28.017578 c 8.526e-4,1.238354 0.8815039,2.146017 1.96875,2.804688 2.030955,1.230385 5.787983,5.233214 8.357422,6.533468 0.965504,0.465758 2.038377,0.623452 2.988281,0.642578 l 4.878906,-0.002 c 1.058956,0.02925 2.343648,-0.09223 3.480469,-0.640625 2.569439,-1.300254 6.326467,-5.303083 8.357422,-6.533468 C 39.118497,30.163595 39.999147,29.255932 40,28.017578 39.999109,26.351115 38.606126,24.999841 36.888672,25 c -0.943905,2.16e-4 -1.835585,0.416099 -2.425781,1.130859 -1.136373,1.515241 -2.207374,3.355618 -3.444854,5.069561 -1.901383,2.88303 -5.050641,4.778657 -6.846162,4.779134 C 20.879486,35.87578 19.138636,34.138221 17.0697,31.321333 15.794907,29.573367 14.700253,27.681795 13.537109,26.130859 12.946913,25.416099 12.055233,25.000216 11.111328,25 Z"/>
 <circle style="fill:#3949ab" cx="24" cy="16" r="12"/>
 <path style="fill:#9b9b9b" d="M 11.111328,24 C 9.3938744,23.999841 8.0008914,25.351115 8,27.017578 c 8.526e-4,1.238354 0.8815039,2.146017 1.96875,2.804688 2.030955,1.230385 5.787983,5.233214 8.357422,6.533468 0.965504,0.465758 2.038377,0.623452 2.988281,0.642578 l 4.878906,-0.002 c 1.058956,0.02925 2.343648,-0.09223 3.480469,-0.640625 2.569439,-1.300254 6.326467,-5.303083 8.357422,-6.533468 C 39.118497,29.163595 39.999147,28.255932 40,27.017578 39.999109,25.351115 38.606126,23.999841 36.888672,24 c -0.943905,2.16e-4 -1.835585,0.416099 -2.425781,1.130859 -1.136373,1.515241 -2.207374,3.355618 -3.444854,5.069561 -1.901383,2.88303 -5.050641,4.778657 -6.846162,4.779134 C 20.879486,34.87578 19.138636,33.138221 17.0697,30.321333 15.794907,28.573367 14.700253,26.681795 13.537109,25.130859 12.946913,24.416099 12.055233,24.000216 11.111328,24 Z"/>
 <ellipse style="opacity:0.2" cx="24" cy="41" rx="10" ry="4"/>
 <ellipse style="fill:#f0e83c" cx="24" cy="40" rx="10" ry="4"/>
 <path style="opacity:0.1;fill:#f4f4f7" d="M 24 4 A 12 12 0 0 0 12 16 A 12 12 0 0 0 12.019531 16.59375 A 12 12 0 0 1 24 5 A 12 12 0 0 1 35.980469 16.40625 A 12 12 0 0 0 36 16 A 12 12 0 0 0 24 4 z"/>
 <path style="opacity:0.1;fill:#f4f4f7" d="M 11.111328 24 C 9.3938745 23.999841 8.0008914 25.351115 8 27.017578 C 8.0001185 27.18964 8.0204518 27.354159 8.0527344 27.513672 C 8.301986 26.088558 9.5719433 24.999857 11.111328 25 C 12.055233 25.000216 12.946913 25.416099 13.537109 26.130859 C 14.700253 27.681795 15.795519 29.5743 17.070312 31.322266 C 19.139249 34.139154 20.879486 35.876695 24.171875 35.980469 C 25.967396 35.979992 29.116195 34.084202 31.017578 31.201172 C 32.255058 29.487229 33.326518 27.6461 34.462891 26.130859 C 35.053087 25.416099 35.944767 25.000216 36.888672 25 C 38.428057 24.999857 39.698014 26.088558 39.947266 27.513672 C 39.979548 27.354159 39.999881 27.18964 40 27.017578 C 39.999109 25.351115 38.606126 23.999841 36.888672 24 C 35.944767 24.000216 35.053087 24.416099 34.462891 25.130859 C 33.326518 26.6461 32.255058 28.487229 31.017578 30.201172 C 29.116195 33.084202 25.967396 34.979992 24.171875 34.980469 C 20.879486 34.876695 19.139249 33.139154 17.070312 30.322266 C 15.795519 28.5743 14.700253 26.681795 13.537109 25.130859 C 12.946913 24.416099 12.055233 24.000216 11.111328 24 z"/>
 <path style="opacity:0.2;fill:#f4f4f7" d="M 24 36 A 10 4 0 0 0 14 40 A 10 4 0 0 0 14.089844 40.498047 A 10 4 0 0 1 24 37 A 10 4 0 0 1 33.910156 40.501953 A 10 4 0 0 0 34 40 A 10 4 0 0 0 24 36 z"/>
</svg>

<svg xmlns="http://www.w3.org/2000/svg" width="48" height="48" version="1"><circle style="opacity:.2" cx="24" cy="17" r="12"/><path style="opacity:.2" d="M11.111 25C9.394 25 8.001 26.351 8 28.018c0 1.238.882 2.146 1.969 2.804 2.03 1.23 5.788 5.233 8.357 6.534.966.465 2.039.623 2.988.642l4.88-.002c1.058.03 2.343-.092 3.48-.64 2.57-1.3 6.326-5.303 8.357-6.534C39.118 30.164 40 29.256 40 28.018 40 26.35 38.606 25 36.889 25c-.944 0-1.836.416-2.426 1.13-1.136 1.516-2.207 3.356-3.445 5.07-1.901 2.883-5.05 4.78-6.846 4.78-3.293-.104-5.033-1.842-7.102-4.659-1.275-1.748-2.37-3.64-3.533-5.19A3.145 3.145 0 0 0 11.111 25z"/><circle style="fill:#3949ab" cx="24" cy="16" r="12"/><path style="fill:#9b9b9b" d="M11.111 24C9.394 24 8.001 25.351 8 27.018c0 1.238.882 2.146 1.969 2.804 2.03 1.23 5.788 5.233 8.357 6.534.966.465 2.039.623 2.988.642l4.88-.002c1.058.03 2.343-.092 3.48-.64 2.57-1.3 6.326-5.303 8.357-6.534C39.118 29.164 40 28.256 40 27.018 40 25.35 38.606 24 36.889 24c-.944 0-1.836.416-2.426 1.13-1.136 1.516-2.207 3.356-3.445 5.07-1.901 2.883-5.05 4.78-6.846 4.78-3.293-.104-5.033-1.842-7.102-4.659-1.275-1.748-2.37-3.64-3.533-5.19A3.145 3.145 0 0 0 11.111 24z"/><ellipse style="opacity:.2" cx="24" cy="41" rx="10" ry="4"/><ellipse style="fill:#f0e83c" cx="24" cy="40" rx="10" ry="4"/><path style="opacity:.1;fill:#f4f4f7" d="M24 4a12 12 0 0 0-12 12 12 12 0 0 0 .02.594A12 12 0 0 1 24 5a12 12 0 0 1 11.98 11.406A12 12 0 0 0 36 16 12 12 0 0 0 24 4zM11.111 24C9.394 24 8.001 25.351 8 27.018c0 .172.02.336.053.496C8.302 26.089 9.572 25 11.11 25c.944 0 1.836.416 2.426 1.13 1.163 1.552 2.259 3.444 3.533 5.192 2.07 2.817 3.81 4.555 7.102 4.658 1.795 0 4.944-1.896 6.846-4.779 1.237-1.714 2.309-3.555 3.445-5.07A3.145 3.145 0 0 1 36.889 25c1.54 0 2.809 1.089 3.058 2.514.033-.16.053-.324.053-.496C40 25.35 38.606 24 36.889 24c-.944 0-1.836.416-2.426 1.13-1.136 1.516-2.208 3.357-3.445 5.071-1.902 2.883-5.05 4.779-6.846 4.78-3.293-.104-5.033-1.842-7.102-4.659-1.274-1.748-2.37-3.64-3.533-5.191A3.145 3.145 0 0 0 11.111 24z"/><path style="opacity:.2;fill:#f4f4f7" d="M24 36a10 4 0 0 0-10 4 10 4 0 0 0 .09.498A10 4 0 0 1 24 37a10 4 0 0 1 9.91 3.502A10 4 0 0 0 34 40a10 4 0 0 0-10-4z"/></svg>
